app/img/about/san-francisco-49ers.svg

<svg width="412" height="244" viewBox="0 0 412 244" xmlns="http://www.w3.org/2000/svg"><title>san-francisco-49ers</title><g fill="none" fill-rule="evenodd"><path d="M205.574.74c113.533 0 205.57 54.325 205.57 121.337S319.106 243.41 205.574 243.41C92.044 243.41.004 189.09.004 122.077.004 55.065 92.042.741 205.574.741" fill="$FFFFFF"/><path d="M205.128 6.987c110.077 0 199.312 51.927 199.312 115.982 0 64.05-89.235 115.98-199.312 115.98-110.077 0-199.313-51.93-199.313-115.98 0-64.06 89.236-115.99 199.313-115.99" fill="#090908"/><path d="M206.022 17.248c96.008 0 173.84 47.932 173.84 107.06 0 59.127-77.832 107.06-173.84 107.06-96.01 0-173.84-47.933-173.84-107.06 0-59.128 77.83-107.06 173.84-107.06" fill="#C6A463"/><path d="M206.468 22.6c88.358 0 159.986 44.737 159.986 99.923 0 55.185-71.628 99.922-159.986 99.922-88.358 0-159.986-44.737-159.986-99.922 0-55.186 71.628-99.923 159.986-99.923" fill="#C81D3C"/><path d="M331.46 109.478h-.438v-3.634h-63.46c-1.36-7.13-5.47-13.74-11.33-18.9-5.77-6.627-14.16-11.61-23.703-13.5l-3.97-.813c-9.16-1.92-16.39-3.44-45.5-3.29 0 0-5.6-.19-11.03-.91-1.38-.34-2.59-.76-3.62-1.21.4-2.42 4.83-5.75 9.83-6.39.52-.09 32.02-5.88 64.44 15.08l.79.52h21.31v-32.55h-3.647v-3.633H231.9l-4.926 3.76c-8.417-2.105-49.657-11.11-85.26 4.446-14.965 6.17-24.25 17.824-23.594 29.654.335 5.965 3.197 11.165 8.14 15.203 3.64 4.53 9.358 8.07 16.807 10.21 10.545 3.03 19.47 4.28 28.125 4.773v14.84h3.65v3.637h11.112c4.604 0 5.79 2.55 6.07 3.498-14.188-.925-35.77-4.96-51.653-19.634l-.59-.64h-.11c-.873-.837-1.74-1.7-2.58-2.607l-.95-1.03h-15.99v46.336h3.65v3.63h13.04c1.915.133 7.976-.543 12.16-12.734 6.78 2.353 23.5 7.38 44.09 7.94v28.82c-.72 9.677-22.08 12.71-29.527 13.002l-3.074.12v14.33h3.64v3.63h93.78v-13.71l-2.393-.636c-.43-.11-.834-.22-1.25-.333v-3.132l-2.93-.25c-5.27-.47-9.33-1.38-12.476-2.494-5.89-3.305-6.9-5.98-7.024-6.413v-15.37h27.485c2.9.44 5.386 1.71 7.496 3.36 3.96 4.865 5.76 10.43 5.79 10.52l.706 2.25 2.36.013h.074c.33.82.506 1.348.51 1.376l.7 2.255h14.77V133.1h-3.64v-3.64h-14.71l-.53 2.552c-3.857 18.523-25.313 18.25-44.395 15.474a105.131 105.131 0 0 0 11.247-3.73c10.216-4.053 17.88-9.566 22.66-16.02h41.19c2.88.09 5.32.804 7.37 2.146 4.32 6.33 3.89 15.634 3.89 15.745l-.18 3.37h3.83l-.006.262-.185 3.37h16.42v-43.16h-3.21" fill="#090908"/><path d="M265.762 120.893H299.9c19.498.62 18.088 24.904 18.088 24.904h9.832v-36.755H268.9s-.14 8.225-3.138 11.85m-69.484 31.395v28.224c-1.014 14.8-32.593 16.03-32.593 16.03v8.06h87.37v-8.05c-25.964-2.24-26.08-15.45-26.08-15.45v-18.85h31.035c14.196 2.02 19.652 19.78 19.652 19.78h9.2v-49.36h-8.89c-6.178 29.73-51.82 16.357-55.196 17.1 0 0-11.242 2.805-24.498 2.53m27.26-48.56c11.86 3.47 12.962 12.504 6.018 20.96-8.885 8.37-22.456 8.718-22.456 8.718s-45.694 4.93-72.36-23.865h-11.386v39.94h9.978s6.082.93 9.982-13.7c0 0 46.92 19.06 91.55 1.37 43.225-17.14 26.774-54.674-2.968-60.56-11.44-2.26-15.987-4.212-48.81-4.043 0 0-5.927-.19-11.697-.97-18.1-4.51-7.81-16.186 2.8-17.556 0 0 32.59-6.414 66.59 15.57h17.15v-26.16h-24.96l-5.3 4.046s-46.267-12.897-84.687 3.89c-25.82 10.657-30.884 37.314-2.68 45.43 24.837 7.145 40.67 4.15 65.84 5.11 7.033.27 13.146.545 17.375 1.826m-37.28 16.19H174.4v-10.6c9.19 0 27.93.08 41.19 0 13.345 0 15.122 7.7 9.5 12.91-5.3 4.91-16.4 8.41-29.542 6.02 0 0-1.083-8.322-9.29-8.322" fill="#FFF"/></g></svg>

<?xml version="1.0" encoding="UTF-8"?>
<svg width="412px" height="244px" viewBox="0 0 412 244" version="1.1" xmlns="http://www.w3.org/2000/svg" xmlns:xlink="http://www.w3.org/1999/xlink">
    <!-- Generator: Sketch 40.3 (33839) - http://www.bohemiancoding.com/sketch -->
    <title>san-francisco-49ers</title>
    <desc>Created with Sketch.</desc>
    <defs></defs>
    <g id="Page-1" stroke="none" stroke-width="1" fill="none" fill-rule="evenodd">
        <g id="san-francisco-49ers">
            <g id="Group">
                <path d="M205.574,0.74 C319.107,0.74 411.144,55.065 411.144,122.077 C411.144,189.089 319.106,243.41 205.574,243.41 C92.044,243.41 0.004,189.09 0.004,122.077 C0.004,55.065 92.042,0.741 205.574,0.741" id="Shape" fill="#FFFFFF"></path>
                <path d="M205.128,6.987 C315.205,6.987 404.44,58.914 404.44,122.969 C404.44,187.019 315.205,238.949 205.128,238.949 C95.051,238.949 5.815,187.019 5.815,122.969 C5.815,58.909 95.051,6.979 205.128,6.979" id="Shape" fill="#090908"></path>
                <path d="M206.022,17.248 C302.03,17.248 379.862,65.18 379.862,124.308 C379.862,183.435 302.03,231.368 206.022,231.368 C110.012,231.368 32.182,183.435 32.182,124.308 C32.182,65.18 110.012,17.248 206.022,17.248" id="Shape" fill="#C6A463"></path>
                <path d="M206.468,22.6 C294.826,22.6 366.454,67.337 366.454,122.523 C366.454,177.708 294.826,222.445 206.468,222.445 C118.11,222.445 46.482,177.708 46.482,122.523 C46.482,67.337 118.11,22.6 206.468,22.6" id="Shape" fill="#C81D3C"></path>
                <path d="M331.46,109.478 L331.022,109.478 L331.022,105.844 L267.562,105.844 C266.202,98.714 262.092,92.104 256.232,86.944 C250.462,80.317 242.072,75.334 232.529,73.444 L228.559,72.631 C219.399,70.711 212.169,69.191 183.059,69.341 C183.059,69.341 177.459,69.151 172.029,68.431 C170.649,68.091 169.439,67.671 168.409,67.221 C168.809,64.801 173.239,61.471 178.239,60.831 C178.759,60.741 210.259,54.951 242.679,75.911 L243.469,76.431 L264.779,76.431 L264.779,43.881 L261.132,43.881 L261.132,40.248 L231.9,40.248 L226.974,44.008 C218.557,41.903 177.317,32.898 141.714,48.454 C126.749,54.624 117.464,66.278 118.12,78.108 C118.455,84.073 121.317,89.273 126.26,93.311 C129.9,97.841 135.618,101.381 143.067,103.521 C153.612,106.551 162.537,107.801 171.192,108.294 L171.192,123.134 L174.842,123.134 L174.842,126.771 L185.954,126.771 C190.558,126.771 191.744,129.321 192.024,130.269 C177.836,129.344 156.254,125.309 140.371,110.635 L139.781,109.995 L139.671,109.995 C138.798,109.158 137.931,108.295 137.091,107.388 L136.141,106.358 L120.151,106.358 L120.151,152.694 L123.801,152.694 L123.801,156.324 L136.841,156.324 C138.756,156.457 144.817,155.781 149.001,143.59 C155.781,145.943 172.501,150.97 193.091,151.53 L193.091,180.35 C192.371,190.027 171.011,193.06 163.564,193.352 L160.49,193.472 L160.49,207.802 L164.13,207.802 L164.13,211.432 L257.91,211.432 L257.91,197.722 L255.517,197.086 C255.087,196.976 254.683,196.866 254.267,196.753 L254.267,193.621 L251.337,193.371 C246.067,192.901 242.007,191.991 238.861,190.877 C232.971,187.572 231.961,184.897 231.837,184.464 L231.837,169.094 L259.322,169.094 C262.222,169.534 264.708,170.804 266.818,172.454 C270.778,177.319 272.578,182.884 272.608,182.974 L273.314,185.224 L275.674,185.237 L275.748,185.237 C276.078,186.057 276.254,186.585 276.258,186.613 L276.958,188.868 L291.728,188.868 L291.728,133.1 L288.088,133.1 L288.088,129.46 L273.378,129.46 L272.848,132.012 C268.991,150.535 247.535,150.262 228.453,147.486 C232.191,146.471 235.951,145.244 239.7,143.756 C249.916,139.703 257.58,134.19 262.36,127.736 L303.55,127.736 C306.43,127.826 308.87,128.54 310.92,129.882 C315.24,136.212 314.81,145.516 314.81,145.627 L314.63,148.997 L318.46,148.997 L318.454,149.259 L318.269,152.629 L334.689,152.629 L334.689,109.469 L331.479,109.469" id="Shape" fill="#090908"></path>
                <path d="M265.762,120.893 L299.9,120.893 C319.398,121.513 317.988,145.797 317.988,145.797 L327.82,145.797 L327.82,109.042 L268.9,109.042 C268.9,109.042 268.76,117.267 265.762,120.892 M196.278,152.287 L196.278,180.511 C195.264,195.311 163.685,196.541 163.685,196.541 L163.685,204.601 L251.055,204.601 L251.055,196.551 C225.091,194.311 224.975,181.101 224.975,181.101 L224.975,162.251 L256.01,162.251 C270.206,164.271 275.662,182.031 275.662,182.031 L284.862,182.031 L284.862,132.671 L275.972,132.671 C269.794,162.401 224.152,149.028 220.776,149.771 C220.776,149.771 209.534,152.576 196.278,152.301 M223.538,103.741 C235.398,107.211 236.5,116.245 229.556,124.701 C220.671,133.071 207.1,133.419 207.1,133.419 C207.1,133.419 161.406,138.349 134.74,109.554 L123.354,109.554 L123.354,149.494 L133.332,149.494 C133.332,149.494 139.414,150.424 143.314,135.794 C143.314,135.794 190.234,154.854 234.864,137.164 C278.089,120.024 261.638,82.49 231.896,76.604 C220.456,74.344 215.909,72.392 183.086,72.561 C183.086,72.561 177.159,72.371 171.389,71.591 C153.289,67.081 163.579,55.405 174.189,54.035 C174.189,54.035 206.779,47.621 240.779,69.605 L257.929,69.605 L257.929,43.445 L232.969,43.445 L227.669,47.491 C227.669,47.491 181.402,34.594 142.982,51.381 C117.162,62.038 112.098,88.695 140.302,96.811 C165.139,103.956 180.972,100.961 206.142,101.921 C213.175,102.191 219.288,102.466 223.517,103.747 M186.237,119.937 L174.4,119.937 L174.4,109.337 C183.59,109.337 202.33,109.417 215.59,109.337 C228.935,109.337 230.712,117.037 225.09,122.247 C219.79,127.157 208.69,130.657 195.548,128.267 C195.548,128.267 194.465,119.945 186.258,119.945" id="Shape" fill="#FFFFFF"></path>
            </g>
        </g>
    </g>
</svg>
